X:242
T:Hyperdrive
C:Chris Thile (Thile & Grier Live at Prism Coffeehouse)
N:Transcribed and TablEdited by Steve Keating
L:1/8
Q:1/4=295
M:4/4
K:D
z4 A2 =c2 | "First Break"=cd z2 d2 AB | =cA BG A2 D2 | d2 z=f d=c AB | =cA BG A2 F2 | 
M:2/4
G2 ^G2 | 
M:4/4
A2 AA A2 AB | =cB AG =F^F DA | GA A=c AG =F^F | DA GA AA =c2 | =cd D2 d2 Ac | 
dA BA {^G}A4 | {c}d2 z=f d=c AB | =cA BG A2 {=F}^FA | 
M:2/4
G2 ^G2 | 
M:4/4
AA AA AA AB | =cB AG =F^F D2 | GA A=c AG =F^F | D4 D=F zD | {F}G2 G,2 G2 =FG | 
A=F Gz G,G G,2 | E=F FF F2 DF | E=C D2 DD =FD | {F}G2 G,2 G2 =FG | A=F G2 G,G G,2 | 
=F2 zD Ez CE | D2 =CD DD =FD | {F}G2 G,2 G2 =FG | A=F G2 G,G G,2 | E=F FF F2 DF | 
E=C D2 zD =FD | {F}G2 zG, G2 =FG | A=F GA =cG Ac | =cd =f^f =f^f dc | AG =F^F D=C A,B, | 
=C^C D4 z2 | z2 =CD DF G^G | "Second Break"AG A=c dD Dd | e2 {^d}e2 =dD D=c | 
d2 {c}d2 =cD DB | =c2 {B}c2 BD B^A | 
M:2/4
z^A z=A | 
M:4/4
GA AA AB =cB | AG =F^F Ad =c^c | Ad eg ea ge | ga =c'c' ac' ^c'c' | c'd' zD d'2 ab | 
=c'b ag a2 AD | zb d'D d'=c' ab | =c'a bg a{f}g aa | 
M:2/4
aa a{f}g | 
M:4/4
aa ga aa bb | b=c' c'c' c'b bb | aa gg gd =f^f | d2 =cB AG =F^F | G2 GB d=f ga | 
bg ab =c'a bc' | d'd' =c'd' bd' c'b | ab ga =f^f d=c | ^AB dg G2 G2 | ^AB dg G2 ^G=A | 
z2 AA =c2 {^d}e2 | d2 zd zA zB | =c2 {^A}B2 GG DE | =FE D=C ^A,B, DF | E=F GA FA d=c | 
Ae =cA ce bg | bd =c=f d'f d'e' | =f'e' d'=c' a^g zA | g^g =f^f dA =cB | AG =F^F A=c d2 | 
z8 | z2 A=c dA cd | "Third Break"=f^f d2 d2 AB | =cA BG AG Ac | e=c A^G =GD =F^F | 
DF G^G A2 =F^F | 
M:2/4
G2 ^G2 | 
M:4/4
A2 GA A2 A=c | d=c A^G =F^F D^D | E^D =D=C ^CA GD | =c^c AG ^GA =c^c | d2 D2 {c}d2 AB | 
=cA BG A2 {^g}a2 | z2 eg =f^f dA | =cA BG A2 F2 | 
M:2/4
G2 ^G2 | 
M:4/4
A2 GA zA zA | =cB AG =F^F DG | AA ^GA A=G =F^F | D2 {C}DD =FD zF | G2 G,2 G2 =FG | 
A=F G2 G,G zE | =FF FF zA, =CF | EC D2 zD =FD | =FG G,2 G2 FG | A=F G2 G,G G,2 | 
{E}=F2 zD Ez =CE | D4 d=f zd | =fg gg g2 fg | a=f gg gg gD | e=f ff f=c df | e=c d2 de =fd | 
=fg gg g2 fg | a=f gg g2 de | =f2 df e2 =ce | d8 | z8 | 
 

